X: 20357
T: John Carty's
R: reel
M: 4/4
K: Edorian
BFAF ~E3G|FDAD FA~A2|BFAF ~E3d|~c2BA BE~E2:|
d2fd e2fd|e2fe dB~B2|d2fd edef|dBAF FEEc|
d2fd ~e3f|g2fg eB~B2|gbag f3e|dBAF FEFA||

